static/config.svg

<svg fill="none" height="502" viewBox="0 0 502 502" width="502" xmlns="http://www.w3.org/2000/svg"><path clip-rule="evenodd" d="m377.466 169-5.864 10.179 5.864 10.178h11.719l5.864-10.178-5.864-10.179zm-58.848 30.543 6.923-17.742 17.43-10.577h19.466v17.798h-14.516l-8.045 4.88-3.514 9.004v2.894h20.902v16.806c-5.446 0-14.467-4.523-20.902-14.282v3.761 4.187 82.037h-17.744v-82.037-4.215-3.272c-6.407 9.445-15.234 13.821-20.588 13.821v-16.813h20.588zm-130.983 26.915c5.417-.28 8.185 6.417 4.155 10.066l-11.378 10.298c-2.538 2.3-2.538 6.292 0 8.585l11.371 10.29c4.03 3.642 1.262 10.346-4.155 10.067l-15.296-.783c-3.409-.175-6.226 2.642-6.052 6.068l.781 15.338c.279 5.438-6.4 8.214-10.04 4.173l-10.262-11.402c-2.287-2.545-6.268-2.545-8.562 0l-10.262 11.402c-3.633 4.034-10.319 1.258-10.04-4.173l.781-15.338c.174-3.419-2.636-6.243-6.052-6.068l-15.2962.783c-5.4242.279-8.192-6.418-4.1623-10.067l11.3715-10.29c2.538-2.3 2.538-6.292 0-8.585l-11.3715-10.291c-4.0228-3.649-1.2549-10.346 4.1623-10.066l15.2962.783c3.409.174 6.226-2.643 6.052-6.068l-.781-15.338c-.279-5.439 6.4-8.214 10.04-4.174l10.262 11.395c2.294 2.545 6.275 2.545 8.562 0l10.269-11.402c3.633-4.033 10.319-1.258 10.04 4.174l-.781 15.338c-.174 3.418 2.636 6.242 6.052 6.068zm79.292-24.489c-10.548 0-19.374 10.29-21.773 24.132-2.398-13.849-11.225-24.132-21.773-24.132-10.535 0-19.347 10.255-21.76 24.062l.133 50.355c2.593 13.443 11.281 23.342 21.627 23.342 10.548 0 19.375-10.29 21.773-24.132 2.399 13.849 11.225 24.132 21.773 24.132 12.076 0 21.892-13.464 22.394-30.333h.049v-35.765c-.007-17.484-10.053-31.661-22.443-31.661zm-227.2428 19.196h18.5453l17.4508 13.268 10.7228-14.17-22.2056-16.89h-30.4813l-24.47839 18.61-9.23781 29.766 9.23781 29.767 24.47839 18.617h30.4813l22.2056-16.89-10.7228-14.177-17.4508 13.275h-18.5453l-15.1918-11.556-5.9052-19.036 5.9052-19.036zm334.7938 15.471h-8.848v30.837h8.848v30.836h17.701v-30.836h-8.847v-30.837h8.847v-30.836h-17.701zm102.186-30.438h25.336v17.75h-25.336zm-.042 57.821v-39.974l-34.525-19.986-34.525 19.986v39.974l34.525 19.986zm.432 30.92c0 21.525-15.491 38.967-34.608 38.967s-34.609-17.442-34.616-38.967z" fill="#f4d150" fill-rule="evenodd"/></svg>

<svg width="502" height="502" viewBox="0 0 502 502" fill="none" xmlns="http://www.w3.org/2000/svg">
<path fill-rule="evenodd" clip-rule="evenodd" d="M377.466 169L371.602 179.179L377.466 189.357H389.185L395.049 179.179L389.185 169H377.466ZM318.618 199.543L325.541 181.801L342.971 171.224H362.437V189.022H347.921L339.876 193.902L336.362 202.906V205.8H357.264V222.606C351.818 222.606 342.797 218.083 336.362 208.324V212.085V216.272V298.309H318.618V216.272V212.057V208.785C312.211 218.23 303.384 222.606 298.03 222.606V205.793H318.618V199.543ZM187.635 226.458C193.052 226.178 195.82 232.875 191.79 236.524L180.412 246.822C177.874 249.122 177.874 253.114 180.412 255.407L191.783 265.697C195.813 269.339 193.045 276.043 187.628 275.764L172.332 274.981C168.923 274.806 166.106 277.623 166.28 281.049L167.061 296.387C167.34 301.825 160.661 304.601 157.021 300.56L146.759 289.158C144.472 286.613 140.491 286.613 138.197 289.158L127.935 300.56C124.302 304.594 117.616 301.818 117.895 296.387L118.676 281.049C118.85 277.63 116.04 274.806 112.624 274.981L97.3278 275.764C91.9036 276.043 89.1358 269.346 93.1655 265.697L104.537 255.407C107.075 253.107 107.075 249.115 104.537 246.822L93.1655 236.531C89.1427 232.882 91.9106 226.185 97.3278 226.465L112.624 227.248C116.033 227.422 118.85 224.605 118.676 221.18L117.895 205.842C117.616 200.403 124.295 197.628 127.935 201.668L138.197 213.063C140.491 215.608 144.472 215.608 146.759 213.063L157.028 201.661C160.661 197.628 167.347 200.403 167.068 205.835L166.287 221.173C166.113 224.591 168.923 227.415 172.339 227.241L187.635 226.458ZM266.927 201.969C256.379 201.969 247.553 212.259 245.154 226.101C242.756 212.252 233.929 201.969 223.381 201.969C212.846 201.969 204.034 212.224 201.621 226.031L201.754 276.386C204.347 289.829 213.035 299.728 223.381 299.728C233.929 299.728 242.756 289.438 245.154 275.596C247.553 289.445 256.379 299.728 266.927 299.728C279.003 299.728 288.819 286.264 289.321 269.395H289.37V233.63C289.363 216.146 279.317 201.969 266.927 201.969ZM39.6842 221.165H58.2295L75.6803 234.433L86.4031 220.263L64.1975 203.373H33.7162L9.23781 221.983L0 251.749L9.23781 281.516L33.7162 300.133H64.1975L86.4031 283.243L75.6803 269.066L58.2295 282.341H39.6842L24.4924 270.785L18.5872 251.749L24.4924 232.713L39.6842 221.165ZM374.478 236.636H365.63V267.473H374.478V298.309H392.179V267.473H383.332V236.636H392.179V205.8H374.478V236.636ZM476.664 206.198H502V223.948H476.664V206.198ZM476.622 264.019V224.045L442.097 204.059L407.572 224.045V264.019L442.097 284.005L476.622 264.019ZM477.054 294.939C477.054 316.464 461.563 333.906 442.446 333.906C423.329 333.906 407.837 316.464 407.83 294.939H477.054Z" fill="#F4D150"/>
</svg>
